Suru++-Ubuntu/apps/symbolic/fman-symbolic.svg

<svg width="16" height="15.996" version="1.1" xmlns="http://www.w3.org/2000/svg">
 <path d="m3.99414 0.99599947c-1.2582 0.0145-2.17889-0.0306-2.93164 0.38477003-0.1894 0.10449-0.35759 0.24583-0.5 0.41601h-0.0625v0.0879c-0.11056 0.14835-0.20685 0.31154-0.27539 0.49414-0.16467 0.43866-0.22461 0.95957-0.22461 1.61718v8.0000005c0 0.65761 0.0599 1.17858 0.22461 1.61719 0.16468 0.43861 0.46153 0.78852 0.83789 0.99609 0.75272 0.41513 1.67354 0.37165 2.93164 0.38672h8.01186c1.25819-0.0145 2.17889 0.0306 2.93164-0.38477 0.37637-0.20766 0.67322-0.55938 0.83789-0.99804 0.16439-0.43867 0.22447-0.95958 0.22447-1.61719v-8.0000005c0-0.65761-0.0599-1.17858-0.22461-1.61719-0.0685-0.18245-0.16493-0.34429-0.27539-0.49219v-0.0898h-0.0625c-0.1422-0.16917-0.31105-0.30985-0.5-0.41406-0.75272-0.41513003-1.67355-0.37165-2.93164-0.38672003h-8.00786zm-2.99414 3h14v8.0000005c0 0.59239-0.0626 1.00573-0.16016 1.26562-0.0976 0.25991-0.20135 0.37147-0.38476 0.47266-0.36596 0.20192-1.19656 0.24701-2.45508 0.26172h-8.00004c-1.25863-0.0152-2.0891-0.0599-2.45508-0.26172-0.18342-0.10116-0.28722-0.21286-0.38476-0.47266-0.09755-0.25979-0.16016-0.67323-0.16016-1.26562z" style="fill:#808080"/>
 <rect x="5" y="5" width="9" height="1" style="fill:#808080;opacity:.5"/>
 <rect x="5" y="7" width="9" height="1" style="fill:#808080;opacity:.5"/>
 <rect x="5" y="9" width="9" height="1" style="fill:#808080;opacity:.5"/>
 <rect x="5" y="11" width="5" height="1" style="fill:#808080;opacity:.5"/>
 <rect x="3" y="4" width="1" height="10" style="fill:#808080;opacity:.5"/>
</svg>

<svg xmlns="http://www.w3.org/2000/svg" width="16" height="15.996" version="1.1">
 <path d="m 3.99414,0.99599947 c -1.2582,0.0145 -2.17889,-0.0306 -2.93164,0.38477003 -0.1894,0.10449 -0.35759,0.24583 -0.5,0.41601 H 0.5 v 0.0879 c -0.11056,0.14835 -0.20685,0.31154 -0.27539,0.49414 C 0.05994,2.8174795 0,3.3383895 0,3.9959995 V 11.996 c 0,0.65761 0.0599,1.17858 0.22461,1.61719 0.16468,0.43861 0.46153,0.78852 0.83789,0.99609 0.75272,0.41513 1.67354,0.37165 2.93164,0.38672 h 0.002 8.00586 0.004 c 1.25819,-0.0145 2.17889,0.0306 2.93164,-0.38477 0.37637,-0.20766 0.67322,-0.55938 0.83789,-0.99804 C 15.93992,13.17452 16,12.65361 16,11.996 V 3.9959995 c 0,-0.65761 -0.0599,-1.17858 -0.22461,-1.61719 -0.0685,-0.18245 -0.16493,-0.34429 -0.27539,-0.49219 v -0.0898 h -0.0625 c -0.1422,-0.16917 -0.31105,-0.30985 -0.5,-0.41406 -0.75272,-0.41513003 -1.67355,-0.37165 -2.93164,-0.38672003 H 12.00386 3.998 Z M 1,3.9959995 H 15 V 11.996 c 0,0.59239 -0.0626,1.00573 -0.16016,1.26562 -0.0976,0.25991 -0.20135,0.37147 -0.38476,0.47266 C 14.08912,13.9362 13.25852,13.98129 12,13.996 H 4.00586 3.99996 C 2.74133,13.9808 1.91086,13.9361 1.54488,13.73428 1.36146,13.63312 1.25766,13.52142 1.16012,13.26162 1.06257,13.00183 0.99996,12.58839 0.99996,11.996 Z" style="fill:#808080"/>
 <rect width="9" height="1" x="5" y="5" style="opacity:0.5;fill:#808080"/>
 <rect width="9" height="1" x="5" y="7" style="opacity:0.5;fill:#808080"/>
 <rect width="9" height="1" x="5" y="9" style="opacity:0.5;fill:#808080"/>
 <rect width="5" height="1" x="5" y="11" style="opacity:0.5;fill:#808080"/>
 <rect width="1" height="10" x="3" y="4" style="opacity:0.5;fill:#808080"/>
</svg>
